symbols/web/hardware/materialsymbolsrounded/hardware_wght300grad200_40px.svg

<svg xmlns="http://www.w3.org/2000/svg" height="40" width="40"><path d="M17.208 35.042q-.916 0-1.562-.709Q15 33.625 15 32.667V13.125H6.583q.042-3.417 2.438-5.792 2.396-2.375 5.854-2.375H21.5q1.375 0 2.354.959.979.958.979 2.375v2.166l4.625-4.666q.334-.375.959-.604.625-.23 1.125-.23.666 0 1.125.438.458.437.458 1.104v10.667q0 .666-.458 1.125-.459.458-1.125.458-.542 0-1.146-.25-.604-.25-.938-.625l-4.625-4.667v19.459q0 1-.708 1.687-.708.688-1.708.688ZM22 20.625ZM17.792 32.25H22V22.042h-4.208Zm0-13H22V8.292q0-.25-.146-.396-.146-.146-.354-.146h-6.625q-1.417 0-2.667.667-1.25.666-1.916 1.875h7.5Zm4.208 0V7.75v11.5Zm0 13V22.042 32.25Z"/></svg>

<svg xmlns="http://www.w3.org/2000/svg" height="40" width="40"><path d="M17.208 35.042Q16.292 35.042 15.646 34.333Q15 33.625 15 32.667V13.125H6.583Q6.625 9.708 9.021 7.333Q11.417 4.958 14.875 4.958H21.5Q22.875 4.958 23.854 5.917Q24.833 6.875 24.833 8.292V10.458L29.458 5.792Q29.792 5.417 30.417 5.188Q31.042 4.958 31.542 4.958Q32.208 4.958 32.667 5.396Q33.125 5.833 33.125 6.5V17.167Q33.125 17.833 32.667 18.292Q32.208 18.75 31.542 18.75Q31 18.75 30.396 18.5Q29.792 18.25 29.458 17.875L24.833 13.208V32.667Q24.833 33.667 24.125 34.354Q23.417 35.042 22.417 35.042ZM22 20.625ZM17.792 32.25H22V22.042H17.792ZM17.792 19.25H22V8.292Q22 8.042 21.854 7.896Q21.708 7.75 21.5 7.75H14.875Q13.458 7.75 12.208 8.417Q10.958 9.083 10.292 10.292H17.792ZM22 19.25V10.292Q22 9.083 22 8.417Q22 7.75 22 7.75Q22 7.75 22 7.896Q22 8.042 22 8.292V19.25ZM22 32.25V22.042V32.25Z"/></svg>
